X:1
T:Symphony 7 Allegretto
T:Symphony 7 2nd Movement Theme (Allegretto) 
T:Simple arrangement for piano
T:Ludwig van Beethoven
C:L. van Beethoven
%%score { ( 1 3 ) | 2 }
L:1/8
Q:1/4=80
M:2/4
K:C
V:1 treble nm="Piano" snm="Pno."
V:3 treble 
V:2 bass 
V:1
 !arpeggio![CE]2 EE | [B,E]2 E2 | E2 EE | [CE]2 E2 | [CE]2 E^F | !arpeggio![CEG]2 G2 | [B,G]2 GG | %7
 !arpeggio![CEG]4 | [CEG]2 [CEG]A | !arpeggio![^D^FB]2 B2 | !arpeggio![D^F]2 [D^F]^G | %11
 [^CA]2 [=CA]2 | [CE]2 EE | E2 E2 | E4 | !arpeggio![CA]4 | C4 | B,4 | B,/C/ D2 C/B,/ | B,C C2 | %20
 C3 C/D/ | ^DE EE | D/E/ F2 E/D/ | [G,E]4 | !arpeggio![CEG]2 [CEG]A | !arpeggio![^D^FB]2 B2 | %26
 !arpeggio![D^F]2 [D^F]^G | [^CA]2 [=CA]2 | [CE]2 EE | E2 E2 | E4 | [CA]4 | C4 | B,4 | %34
 B,/C/ D2 C/B,/ | B,C C2 | C3 C/D/ | ^DE EE | D/E/ F2 E/D/ | DE E2 | !arpeggio![CEG]2 [CEG]A | %41
 !arpeggio![^D^FB]2 B2 | !arpeggio![D^F]2 [D^F]^G | [^CA]2 [=CA]2 | [CE]2 EE | E2 E2 | E4 | %47
 [CEA]4 |] %48
V:2
 A,,E, A,2 | ^G,,E, ^G,E, | E,,B,, E,2 | A,,E, A,E, | A,,E, A,2 | G,, E,2 G, | G,,D, G,2 | %7
 C,,G,, E,2 | C,,G,, E,2 | B,, ^F,2 B, | B,,^F, B,2 | A,, E,3 | A,,E, A,2 | ^G,,E, A,,E, | E,,4 | %15
 A,,E, A,E, | A,,E, A,E, | ^G,,E, ^G,E, | ^G,,3 E, | A,, E,2 A, | A,,E, A,2 | G,,E, G,2 | %22
 G,,D, G,2 | E,,G,, E,G,, | C,,G,, E,2 | B,, ^F,2 B, | B,,^F, B,2 | A,, E,3 | A,,E, A,2 | %29
 ^G,,E, A,,E, | E,,4 | A,,E, A,E, | A,,E, A,E, | ^G,,E, ^G,E, | ^G,,3 E, | A,, E,2 A, | A,,E, A,2 | %37
 G,,E, G,2 | G,,2 D,2 | G,, E,3 | C,,G,, E,2 | B,, ^F,2 ^F, | B,, ^F,3 | A,,2 A,,2 | A,,E, A,2 | %45
 ^G,,E, A,,2 | E,,4 | [A,,E,A,]4 |] %48
V:3
 x4 | x4 | x4 | x4 | x4 | x4 | x4 | x4 | x4 | x4 | x4 | x4 | x4 | x4 | z2 ^F^G | x4 | x4 | x4 | %18
 x4 | x4 | x4 | x4 | x4 | x4 | x4 | x4 | x4 | x4 | x4 | x4 | z2 ^F^G | x4 | x4 | x4 | x4 | x4 | %36
 x4 | x4 | x4 | x4 | x4 | x4 | x4 | x4 | x4 | x4 | z2 ^F^G | x4 |] %48

